X:182
M:none
L:1/4
K:F
[F2c2] | [F3/2c3/2] [F/c/] [Fd] [Fd] | [F3c3] [FA] | [FB] [FA] [DG] [CF] | [C2E2] [C2F2] | [F2c2] | [F3/2c3/2] [F/c/] [Fd] [Fd] | [F3c3] [FA] | [FB] [FA] [DG] [CF] | [C2E2] [C2F2] | [E2G2] | [E3/2G3/2] [E/G/] [FA] [FA] | [E3G3] [EG] | [FA] [Gc] [Fc] [D=B] | [E3c3] [Fc] | [Fd] [Fc] [FB] [FA] | [F2B2] !sintro![F2A2] | [DG] [CF] [DF] [CE] | [C4F4] !eintro!|]
